X: 29
T:Maids of Tipperary (#229), The
M:4/4
L:1/8
S:Pat. Dunne manuscript
R:Reel
K:D
AF (3FFF AFdB|AF (3FFF BE (3EEE|AF (3FFF AFdF|(3DDD DE FD D2:|
defg abag|fded fdBc|defg abag|fdec (3ddd d2|
defg abag|fded fdBc|defg abag|fdec Ad d2||

